packages/tokens/icons/accessibility/size16Px.svg

<svg viewBox="0 0 16 16" fill="none" xmlns="http://www.w3.org/2000/svg" width="1em" height="1em"><path d="M3.99999 3.00002L4.26498 2.57602L4.24484 2.56343L4.2236 2.55281L3.99999 3.00002ZM12 3.00002L11.7764 2.5528L11.7551 2.56343L11.735 2.57602L12 3.00002ZM9.5 6.50001L9.22265 6.08399L9 6.23242V6.50001H9.5ZM9.5 8.5H9V8.57338L9.02109 8.64367L9.5 8.5ZM11 13.5L10.5211 13.6437L10.5335 13.685L10.5528 13.7236L11 13.5ZM9.5 14L9.02566 14.1581L9.0369 14.1918L9.05279 14.2236L9.5 14ZM8 9.5L8.47434 9.34189C8.40628 9.13771 8.21522 9 8 9C7.78478 9 7.59372 9.13771 7.52566 9.34189L8 9.5ZM6.5 14L6.94721 14.2236L6.9631 14.1918L6.97434 14.1581L6.5 14ZM5 13.5L5.44721 13.7236L5.46651 13.685L5.47891 13.6437L5 13.5ZM6.5 8.5L6.97891 8.64367L7 8.57338V8.5H6.5ZM6.5 6.50001H7V6.23242L6.77735 6.08399L6.5 6.50001ZM8 5.5L7.735 5.924L8 6.08962L8.265 5.924L8 5.5ZM4.2236 2.55281C3.89944 2.39072 3.57225 2.32912 3.26588 2.3824C2.95716 2.43609 2.70547 2.60103 2.53748 2.82501C2.21194 3.25907 2.20755 3.91468 2.64643 4.35357L3.35354 3.64646C3.29242 3.58534 3.28803 3.49094 3.33749 3.42501C3.357 3.39899 3.38656 3.37643 3.43721 3.36762C3.49022 3.3584 3.60053 3.3593 3.77637 3.44723L4.2236 2.55281ZM13.3535 4.35357C13.7924 3.91469 13.788 3.25908 13.4625 2.82502C13.2945 2.60105 13.0428 2.43611 12.7341 2.38242C12.4277 2.32913 12.1006 2.39072 11.7764 2.5528L12.2236 3.44723C12.3994 3.35931 12.5098 3.35841 12.5628 3.36763C12.6134 3.37644 12.643 3.399 12.6625 3.42503C12.712 3.49096 12.7076 3.58535 12.6465 3.64645L13.3535 4.35357ZM10 8.5V6.50001H9V8.5H10ZM9.02109 8.64367L10.5211 13.6437L11.4789 13.3563L9.97891 8.35633L9.02109 8.64367ZM9.97434 13.8419L8.47434 9.34189L7.52566 9.65811L9.02566 14.1581L9.97434 13.8419ZM6.02109 8.35633L4.52109 13.3563L5.47891 13.6437L6.97891 8.64367L6.02109 8.35633ZM6 6.50001V8.5H7V6.50001H6ZM6.97434 14.1581L8.47434 9.65811L7.52566 9.34189L6.02566 13.8419L6.97434 14.1581ZM11.735 2.57602L7.735 5.076L8.265 5.924L12.265 3.42402L11.735 2.57602ZM8.265 5.076L4.26498 2.57602L3.73499 3.42402L7.735 5.924L8.265 5.076ZM2.64643 4.35357C2.80357 4.5107 3.11788 4.75233 3.46212 5.00478C3.81899 5.26648 4.24509 5.56629 4.65289 5.84861C5.06118 6.13127 5.45346 6.39802 5.74351 6.59399C5.88859 6.69202 6.00822 6.77243 6.09164 6.82837C6.13336 6.85634 6.16603 6.87821 6.18831 6.8931C6.19945 6.90055 6.20799 6.90625 6.21377 6.91011C6.21666 6.91204 6.21886 6.91351 6.22035 6.9145C6.22109 6.915 6.22166 6.91537 6.22204 6.91563C6.22223 6.91576 6.22238 6.91586 6.22248 6.91593C6.22253 6.91596 6.22258 6.91599 6.2226 6.916C6.22263 6.91602 6.22265 6.91604 6.5 6.50001C6.77735 6.08399 6.77735 6.08398 6.77733 6.08397C6.77731 6.08396 6.77728 6.08394 6.77724 6.08392C6.77716 6.08386 6.77704 6.08378 6.77687 6.08366C6.77652 6.08344 6.776 6.08309 6.7753 6.08262C6.7739 6.08168 6.77179 6.08028 6.76899 6.0784C6.76338 6.07466 6.75502 6.06908 6.74407 6.06176C6.72216 6.04711 6.68989 6.02552 6.64859 5.99782C6.566 5.94244 6.44735 5.86269 6.30336 5.7654C6.01528 5.57076 5.62631 5.30625 5.2221 5.02642C4.81739 4.74623 4.39974 4.45229 4.05348 4.19837C3.6946 3.93519 3.4464 3.73932 3.35354 3.64646L2.64643 4.35357ZM9.5 6.50001C9.77735 6.91604 9.77737 6.91602 9.7774 6.916C9.77743 6.91599 9.77747 6.91596 9.77752 6.91592C9.77762 6.91586 9.77777 6.91576 9.77796 6.91563C9.77835 6.91537 9.77891 6.915 9.77965 6.9145C9.78114 6.91351 9.78334 6.91204 9.78623 6.91011C9.79201 6.90625 9.80055 6.90055 9.81169 6.8931C9.83398 6.8782 9.86665 6.85634 9.90836 6.82837C9.99178 6.77242 10.1114 6.69202 10.2565 6.59399C10.5465 6.39801 10.9388 6.13126 11.3471 5.8486C11.7549 5.56628 12.181 5.26647 12.5379 5.00477C12.8821 4.75233 13.1964 4.5107 13.3535 4.35357L12.6465 3.64645C12.5536 3.73932 12.3054 3.93518 11.9465 4.19836C11.6003 4.45229 11.1826 4.74623 10.7779 5.02641C10.3737 5.30625 9.98471 5.57076 9.69663 5.7654C9.55265 5.86269 9.434 5.94244 9.3514 5.99783C9.31011 6.02552 9.27784 6.04711 9.25593 6.06176C9.24498 6.06908 9.23662 6.07467 9.23101 6.07841C9.22821 6.08028 9.2261 6.08169 9.2247 6.08262C9.224 6.08309 9.22347 6.08344 9.22313 6.08367C9.22296 6.08378 9.22283 6.08386 9.22275 6.08392C9.22271 6.08394 9.22269 6.08396 9.22267 6.08398C9.22265 6.08399 9.22265 6.08399 9.5 6.50001ZM4.55279 13.2764C4.37264 13.6367 4.3468 14.015 4.49794 14.3475C4.64387 14.6686 4.92302 14.8764 5.21689 14.9743C5.80626 15.1708 6.57601 14.966 6.94721 14.2236L6.05279 13.7764C5.92399 14.034 5.69374 14.0792 5.53311 14.0257C5.45198 13.9986 5.41863 13.9564 5.40831 13.9337C5.4032 13.9225 5.37736 13.8633 5.44721 13.7236L4.55279 13.2764ZM10.5528 13.7236C10.6226 13.8633 10.5968 13.9225 10.5917 13.9337C10.5814 13.9564 10.548 13.9986 10.4669 14.0257C10.3063 14.0792 10.076 14.034 9.94721 13.7764L9.05279 14.2236C9.42399 14.966 10.1937 15.1708 10.7831 14.9743C11.077 14.8764 11.3561 14.6686 11.5021 14.3475C11.6532 14.015 11.6274 13.6367 11.4472 13.2764L10.5528 13.7236Z" fill="currentColor"/><path d="M8 3.5C8.55228 3.5 9 3.05228 9 2.5C9 1.94772 8.55228 1.5 8 1.5C7.44772 1.5 7 1.94772 7 2.5C7 3.05228 7.44772 3.5 8 3.5Z" stroke="currentColor" stroke-linecap="round" stroke-linejoin="round"/></svg>

<svg xmlns="http://www.w3.org/2000/svg" fill="none" viewBox="0 0 16 16" width="1em" height="1em"><path fill="currentColor" d="m4 3 .265-.424-.02-.013-.021-.01L4 3Zm8 0-.224-.447-.02.01-.021.013L12 3ZM9.5 6.5l-.277-.416L9 6.232V6.5h.5Zm0 2H9v.073l.021.07L9.5 8.5Zm1.5 5-.479.144.012.041.02.039L11 13.5Zm-1.5.5-.474.158.01.034.017.032L9.5 14ZM8 9.5l.474-.158a.5.5 0 0 0-.948 0L8 9.5ZM6.5 14l.447.224.016-.032.011-.034L6.5 14ZM5 13.5l.447.224.02-.039.012-.041L5 13.5Zm1.5-5 .479.144.021-.07V8.5h-.5Zm0-2H7v-.268l-.223-.148L6.5 6.5Zm1.5-1-.265.424L8 6.09l.265-.166L8 5.5ZM4.224 2.553c-.325-.162-.652-.224-.958-.17-.309.053-.56.218-.729.442a1.17 1.17 0 0 0 .11 1.529l.707-.708a.17.17 0 0 1-.017-.221.149.149 0 0 1 .1-.057c.053-.01.164-.009.34.08l.447-.895Zm9.13 1.8a1.17 1.17 0 0 0 .109-1.528 1.148 1.148 0 0 0-.729-.443c-.306-.053-.633.009-.958.17l.448.895c.175-.088.286-.089.339-.08.05.01.08.032.1.058a.17.17 0 0 1-.017.221l.707.708ZM10 8.5v-2H9v2h1Zm-.979.144 1.5 5 .958-.288-1.5-5-.958.288Zm.953 5.198-1.5-4.5-.948.316 1.5 4.5.948-.316ZM6.021 8.356l-1.5 5 .958.288 1.5-5-.958-.288ZM6 6.5v2h1v-2H6Zm.974 7.658 1.5-4.5-.948-.316-1.5 4.5.948.316Zm4.761-11.582-4 2.5.53.848 4-2.5-.53-.848Zm-3.47 2.5-4-2.5-.53.848 4 2.5.53-.848Zm-5.619-.722c.158.157.472.398.816.65.357.262.783.562 1.19.845a119.007 119.007 0 0 0 1.536 1.044l.026.017.006.005h.002v.001L6.5 6.5l.277-.416-.002-.001-.006-.005a24.54 24.54 0 0 1-.12-.08 119.173 119.173 0 0 1-1.427-.972c-.405-.28-.822-.574-1.169-.828-.358-.263-.607-.459-.7-.552l-.707.708ZM9.5 6.5l.277.416h.001l.002-.002.006-.004.026-.017a79.893 79.893 0 0 0 .445-.299c.29-.196.682-.463 1.09-.745.408-.283.834-.583 1.19-.844.345-.253.66-.494.816-.651l-.707-.708c-.092.093-.34.29-.7.552-.346.254-.763.548-1.168.828a117.814 117.814 0 0 1-1.522 1.036l-.025.016-.006.005h-.002v.001L9.5 6.5Zm-4.947 6.776c-.18.36-.206.739-.055 1.072.146.32.425.528.719.626a1.423 1.423 0 0 0 1.73-.75l-.894-.448c-.129.258-.36.303-.52.25-.081-.027-.114-.07-.125-.092-.005-.011-.03-.07.04-.21l-.895-.448Zm6 .448c.07.14.044.198.039.21-.01.022-.044.065-.125.092-.16.053-.391.008-.52-.25l-.894.448c.371.742 1.14.947 1.73.75.294-.098.573-.305.72-.627.15-.332.124-.71-.056-1.07l-.894.447Z"/><path stroke="currentColor" stroke-linecap="round" stroke-linejoin="round" d="M8 3.5a1 1 0 1 0 0-2 1 1 0 0 0 0 2Z"/></svg>
